X:1
T:Title
%%score 1 2
L:1/8
Q:1/4=108
M:4/4
K:F
V:1 treble nm="Grand Piano, Soprano"
V:2 bass nm="Choir Pad, The Dawn of Victory"
V:1
 F2 F>G A2 [_Ad]2 | [Ac]6 z2 | D2 D>E F2 [DB]2 | [CA]6 z2 | [Ec]2 [EG]>[FA] [GB]2 [Bd]2 | %5
w: By~Carl~Harold~Lowden * * * *|||||
 [Ac]3 [FA] [Ac]2 [FA]2 | [EG]2 [Ge]2 [FG]2 [Fd]2 | [Ec]6 z2 | F2 F>G A2 [_Ad]2 | [Ac]6 z2 | %10
w: |||||
 D2 D>E F2 [DB]2 | [CA]6 z2 | F3 F GABc | d2 [Ge]2 [Ff]2 [FB]2 | [FA]3 [FA] [EB]2 [EG]2 | F6 z2 | %16
w: ||||||
 c2 c>c c3 B | _A2 GF G2 C2 | F2 G2 _A2 FG | _A2 [FB]2 [Ec]4 | [Ac]4 [_A=B][=Ac][_Bd][FA] | %21
w: |||||
 [Ac]2 [GB]2 [GB]4 | [GB]4 [^FA][GB][Ac][EG] | [GB]2 [FA]2 [FA]4 | [Af]2 [Af]>[Af] [Fe]2 [Fd]2 | %25
w: ||||
 [Ac]2 F2 [Fc]2 [FB]2 | [FA]3 [FA] [EB]2 [EG]2 | F8 |] %28
w: |||
V:2
 F,2 F,>G, A,2 [F,=B,]2 | [F,A,]6 z2 | D,2 D,>E, F,2 [B,,F,]2 | F,6 z2 | %4
 [C,G,]2 [C,C]>[C,C] [C,C]2 [C,C]2 | [F,C]3 [F,C] [F,C]2 [F,C]2 | [G,C]2 [G,C]2 [G,=B,]2 [G,B,]2 | %7
 [C,C]6 z2 | F,2 F,>G, A,2 [F,=B,]2 | [F,C]6 z2 | D,2 D,>E, F,2 [B,,F,]2 | F,6 z2 | %12
 F,3 F, G,A,B,[K:treble]C | D2 CB, [A,C]2[K:bass] [B,D]2 | C3 C [C,G,]2 [C,B,]2 | [F,A,]6 z2 | %16
 C2 C>C C3 B, | _A,2 G,F, G,2 C,2 | F,2 G,2 _A,2 F,G, | _A,2 [^C,F,]2 [=C,G,]4 | %20
 F,,2[K:treble] [A,CF]2 [A,CF]2 [A,CF]2 | C,2 [B,CE]2 [B,CE]2 [B,CE]2 | %22
 C,2 [B,CE]2 [B,CE]2 [B,CE]2 | F,2 [A,C]2 [A,C]F,A,[K:treble]C | D2 D>D [A,C]2[K:bass] B,D | %25
 [F,E]2 [A,C]2 [G,D]2 [G,^C]2 | C3 C [C,G,]2 [C,B,]2 | [F,A,]8 |] %28

